build/flags/EquatorialGuinea.svg

<svg xmlns="http://www.w3.org/2000/svg" fill="none" viewBox="0 0 28 28" focusable="false"><defs><filter id="Equatorial_Guinea_svg__a"><feColorMatrix values="0 0 0 0 1 0 0 0 0 1 0 0 0 0 1 0 0 0 1 0"/></filter></defs><mask id="Equatorial_Guinea_svg__b" width="28" height="20" x="0" y="4" maskUnits="userSpaceOnUse"><g filter="url(#Equatorial_Guinea_svg__a)"><rect width="28" height="20" y="4" fill="#FFF" rx="3"/><rect width="27.5" height="19.5" x=".25" y="4.25" stroke="#F5F5F5" stroke-width=".5" rx="2.75"/></g></mask><path fill="none" d="M0 0H28V28H0z"/><rect width="28" height="20" y="4" fill="#FFF" rx="3"/><rect width="27.5" height="19.5" x=".25" y="4.25" stroke="#D6D8DD" stroke-width=".5" rx="2.75"/><g mask="url(#Equatorial_Guinea_svg__b)"><path fill="#EC3938" fill-rule="evenodd" d="M0 24L28 24L28 17.3334L0 17.3334L0 24Z"/><path d="M28 24L28 17.3334L0 17.3334L0 24L28 24Z"/><path fill="#51B422" fill-rule="evenodd" d="M0 10.6667L28 10.6667L28 4L0 4L0 10.6667Z"/><path d="M28 10.6667L28 4L0 4L0 10.6667L28 10.6667Z"/><path fill="#159940" fill-rule="evenodd" d="M13.6068 15.7151C13.6366 15.684 13.6534 15.6426 13.6537 15.5995L13.6649 13.6274C13.6659 13.4653 13.5347 13.3333 13.3725 13.3333L13.3725 13.3333C13.112 13.3333 12.9816 13.0184 13.1658 12.8342L13.7643 12.2357C13.8944 12.1055 14.1055 12.1055 14.2357 12.2357L14.8333 12.8333C15.0178 13.0178 14.8871 13.3333 14.6262 13.3333L14.6262 13.3333C14.4644 13.3333 14.3333 13.4645 14.3333 13.6262L14.3333 15.5976C14.3333 15.6418 14.3509 15.6842 14.3821 15.7155L14.3821 15.7155C14.4871 15.8205 14.4127 16 14.2643 16L13.7282 16C13.5799 16 13.5041 15.8221 13.6068 15.7151L13.6068 15.7151Z"/><path d="M13.6666 13.6274C13.6676 13.4653 13.5347 13.3333 13.3725 13.3333C13.112 13.3333 12.9816 13.0184 13.1658 12.8342L13.7643 12.2357C13.8944 12.1055 14.1055 12.1055 14.2357 12.2357L14.8333 12.8333C15.0178 13.0178 14.8871 13.3333 14.6262 13.3333C14.4644 13.3333 14.3333 13.4645 14.3333 13.6262L14.3333 15.5976C14.3333 15.6418 14.3509 15.6842 14.3821 15.7155C14.4871 15.8205 14.4127 16 14.2643 16L13.7282 16C13.5799 16 13.5041 15.8221 13.6068 15.7151C13.6366 15.684 13.653 15.6426 13.6533 15.5995L13.6666 13.6274Z"/><path fill="#258DE7" fill-rule="evenodd" d="M0 4L9.33333 14L0 24L0 4Z"/><path d="M9.33333 14L0 24L0 4L9.33333 14Z"/></g></svg>

<svg xmlns="http://www.w3.org/2000/svg" fill="none" viewBox="0 0 28 28" focusable="false"><path fill="none" d="M0 0h28v28H0z"/><rect width="28" height="20" y="4" fill="#FFF" rx="3"/><rect width="27.5" height="19.5" x=".25" y="4.25" stroke="#D6D8DD" stroke-width=".5" rx="3"/><mask id="Equatorial_Guinea_svg__a" width="28" height="20" x="0" y="4" mask-type="alpha" maskUnits="userSpaceOnUse"><rect width="28" height="20" y="4" fill="#FFF" rx="3"/><rect width="27.5" height="19.5" x=".25" y="4.25" stroke="#F5F5F5" stroke-width=".5" rx="3"/></mask><g mask="url(#Equatorial_Guinea_svg__a)"><path fill="#EC3938" fill-rule="evenodd" d="M0 24h28v-6.67H0z"/><path d="M28 24v-6.67H0V24z"/></g><g mask="url(#Equatorial_Guinea_svg__a)"><path fill="#51B422" fill-rule="evenodd" d="M0 10.66h28V4H0z"/><path d="M28 10.66V4H0v6.66z"/></g><g mask="url(#Equatorial_Guinea_svg__a)"><path fill="#159940" fill-rule="evenodd" d="M13.6 15.71c.03-.03.05-.07.05-.12l.01-1.97a.29.29 0 0 0-.29-.29c-.26 0-.39-.32-.21-.5l.6-.6c.13-.13.34-.13.47 0l.6.6c.18.18.05.5-.21.5a.29.29 0 0 0-.29.29v1.97c0 .05.02.09.05.12.1.11.03.29-.12.29h-.54c-.15 0-.22-.18-.12-.29"/><path d="M13.66 13.62a.29.29 0 0 0-.29-.29c-.26 0-.39-.32-.21-.5l.6-.6c.13-.13.34-.13.47 0l.6.6c.18.18.05.5-.21.5a.29.29 0 0 0-.29.29v1.97c0 .05.02.09.05.12.1.11.03.29-.12.29h-.54c-.15 0-.22-.18-.12-.29.03-.03.05-.07.05-.12z"/></g><g mask="url(#Equatorial_Guinea_svg__a)"><path fill="#258DE7" fill-rule="evenodd" d="m0 4 9.33 10L0 24z"/><path d="M9.33 14 0 24V4z"/></g></svg>
